svg/bun.svg

<svg viewBox="0 0 20 20" xmlns="http://www.w3.org/2000/svg">
<rect width="100%" height="100%" fill="#FBF0DF"/>
<path d="M16.6902 6.54369C16.6558 6.50712 16.6192 6.47053 16.5827 6.4361C16.5461 6.40168 16.5116 6.36294 16.4751 6.32849C16.4385 6.29407 16.404 6.25533 16.3675 6.2209C16.3309 6.18648 16.2965 6.14774 16.2599 6.11331C16.2233 6.07889 16.1888 6.04015 16.1523 6.00573C16.1157 5.97128 16.0813 5.93256 16.0447 5.89812C16.0081 5.86369 15.9737 5.82495 15.9371 5.79053C17.0045 6.83951 17.6159 8.26655 17.6392 9.76293C17.6392 13.3286 14.0197 16.2294 9.56964 16.2294C7.07774 16.2294 4.84839 15.3191 3.36572 13.8924L3.47332 14L3.58091 14.1076L3.6885 14.2152L3.79611 14.3228L3.9037 14.4304L4.01129 14.538L4.11888 14.6456C5.59938 16.1325 7.87825 17.0901 10.4304 17.0901C14.8805 17.0901 18.5 14.1894 18.5 10.6344C18.5 9.11521 17.8458 7.67559 16.6902 6.54369Z" fill="black"/>
<path d="M17.1013 9.76302C17.1013 13.036 13.7293 15.6893 9.56972 15.6893C5.4101 15.6893 2.03809 13.036 2.03809 9.76302C2.03809 7.73377 3.32922 5.94125 5.31327 4.8782C7.29731 3.81518 8.53251 2.72632 9.56972 2.72632C10.6069 2.72632 11.4935 3.61504 13.8262 4.8782C15.8102 5.94125 17.1013 7.73377 17.1013 9.76302Z" fill="#FBF0DF"/>
<path d="M17.1012 9.76297C17.1002 9.34249 17.0423 8.9241 16.9291 8.51917C16.3416 15.685 7.60065 16.0293 4.16406 13.886C5.70891 15.0834 7.61529 15.7193 9.56962 15.6893C13.7228 15.6893 17.1012 13.0317 17.1012 9.76297Z" fill="#F6DECE"/>
<path d="M6.67112 4.48442C7.63302 3.9077 8.91122 2.8253 10.1679 2.82315C9.97461 2.76066 9.77289 2.72801 9.56972 2.72632C9.04897 2.72632 8.49377 2.9953 7.79441 3.39987C7.55125 3.54188 7.29946 3.69898 7.03262 3.86252C6.53123 4.17239 5.95669 4.52314 5.31112 4.87391C3.26251 5.98214 2.03809 7.80908 2.03809 9.76302C2.03809 9.84908 2.03809 9.93516 2.03809 10.0191C3.34213 5.41188 5.71136 5.06112 6.67112 4.48442Z" fill="#FFFEFC"/>
<path fill-rule="evenodd" clip-rule="evenodd" d="M8.94985 3.2707C8.95287 3.77881 8.84619 4.28158 8.63709 4.74468C8.42801 5.2078 8.12144 5.62033 7.73835 5.9541C7.67808 6.0079 7.72543 6.1112 7.8029 6.08107C8.52808 5.79917 9.50719 4.95563 9.09403 3.25349C9.07682 3.15664 8.94985 3.18247 8.94985 3.2707ZM9.43834 3.2707C9.70163 3.70031 9.86893 4.18177 9.92873 4.68208C9.98852 5.18241 9.93942 5.68973 9.78478 6.1693C9.75896 6.24461 9.8515 6.30916 9.90314 6.24675C10.3744 5.64423 10.7854 4.44778 9.55454 3.15664C9.49213 3.10069 9.39529 3.18677 9.43834 3.26209V3.2707ZM10.0323 3.23411C10.4446 3.52604 10.7895 3.90297 11.0438 4.33951C11.2981 4.77607 11.4558 5.26207 11.5063 5.76474C11.5041 5.78285 11.509 5.80112 11.5199 5.81572C11.5308 5.83034 11.547 5.8402 11.565 5.84324C11.583 5.84628 11.6014 5.84228 11.6165 5.83208C11.6317 5.82186 11.6423 5.80624 11.6462 5.78841C11.8442 5.0374 11.7323 3.75702 10.1033 3.09209C10.0172 3.05766 9.96124 3.17386 10.0323 3.2255V3.23411ZM6.05985 5.47209C6.55035 5.32555 7.00446 5.07737 7.39263 4.74368C7.78082 4.40999 8.09439 3.9983 8.3129 3.53537C8.35162 3.45791 8.47429 3.48804 8.45491 3.5741C8.08264 5.29563 6.83669 5.65499 6.06202 5.60764C5.98023 5.60981 5.9824 5.49576 6.05985 5.47209Z" fill="#CCBEA7"/>
<path d="M9.5696 16.2294C5.11948 16.2294 1.5 13.3287 1.5 9.76303C1.5 7.61113 2.82987 5.60341 5.05707 4.4005C5.70265 4.0562 6.25568 3.70974 6.74846 3.40632C7.01961 3.23848 7.27567 3.08139 7.52315 2.93506C8.27846 2.48747 8.92403 2.18835 9.5696 2.18835C10.2152 2.18835 10.779 2.44658 11.4848 2.86405C11.7 2.98671 11.9152 3.12012 12.1454 3.26645C12.6812 3.59784 13.2859 3.97227 14.0821 4.4005C16.3093 5.60341 17.6392 7.60898 17.6392 9.76303C17.6392 13.3287 14.0197 16.2294 9.5696 16.2294ZM9.5696 2.72633C9.04885 2.72633 8.49366 2.99531 7.7943 3.39988C7.55111 3.54189 7.29935 3.69899 7.03251 3.86253C6.53112 4.1724 5.95658 4.52315 5.31101 4.87392C3.2624 5.98215 2.03797 7.80909 2.03797 9.76303C2.03797 13.0317 5.41645 15.6915 9.5696 15.6915C13.7228 15.6915 17.1012 13.0317 17.1012 9.76303C17.1012 7.80909 15.8768 5.98215 13.8261 4.87822C13.0126 4.44784 12.3778 4.04328 11.8635 3.72481C11.629 3.58063 11.4138 3.44722 11.2179 3.32886C10.5659 2.94152 10.0904 2.72633 9.5696 2.72633Z" fill="black"/>
<path d="M11.0868 11.3339C10.9902 11.7298 10.7701 12.0847 10.4585 12.3474C10.2245 12.5742 9.92163 12.7166 9.59772 12.752C9.26407 12.7222 8.95057 12.5795 8.70898 12.3474C8.40054 12.0835 8.1836 11.7287 8.08925 11.3339C8.08613 11.3104 8.0884 11.2866 8.09592 11.2642C8.10342 11.2417 8.11598 11.2213 8.13258 11.2045C8.1492 11.1877 8.16945 11.1749 8.19178 11.1671C8.21411 11.1593 8.23791 11.1567 8.2614 11.1596H10.9168C10.9401 11.1571 10.9637 11.1599 10.9858 11.1679C11.0078 11.1758 11.0278 11.1887 11.0441 11.2054C11.0605 11.2222 11.0728 11.2425 11.0802 11.2648C11.0876 11.287 11.0899 11.3106 11.0868 11.3339Z" fill="#B71422"/>
<path d="M8.70888 12.3645C8.94996 12.5967 9.26233 12.7408 9.59545 12.7734C9.92782 12.7403 10.2394 12.5963 10.4799 12.3645C10.5568 12.2928 10.6287 12.2159 10.6951 12.1343C10.5625 11.9839 10.4006 11.8622 10.2192 11.7767C10.0379 11.6912 9.84101 11.6438 9.64065 11.6372C9.42625 11.6423 9.21631 11.6994 9.02886 11.8036C8.84144 11.9078 8.68215 12.056 8.5647 12.2354C8.61419 12.2806 8.65722 12.3237 8.70888 12.3645Z" fill="#FF6164"/>
<path d="M8.74318 12.1946C8.84986 12.0567 8.98643 11.9448 9.14259 11.8672C9.29876 11.7897 9.47048 11.7486 9.64482 11.747C9.96707 11.7565 10.2741 11.8862 10.5056 12.1107C10.5551 12.0569 10.6024 12.0009 10.6476 11.945C10.3738 11.6843 10.0121 11.536 9.63406 11.5297C9.43206 11.5314 9.23293 11.5778 9.05101 11.6656C8.86907 11.7534 8.70882 11.8804 8.58179 12.0375C8.63266 12.0928 8.68655 12.1452 8.74318 12.1946Z" fill="black"/>
<path d="M9.58903 12.8811C9.23046 12.8497 8.89301 12.698 8.63145 12.4507C8.29835 12.169 8.06388 11.7883 7.9622 11.364C7.95491 11.3263 7.95614 11.2873 7.96583 11.2501C7.97552 11.2129 7.9934 11.1783 8.01815 11.1488C8.04765 11.1132 8.08488 11.0848 8.12704 11.0658C8.16917 11.0468 8.2151 11.0376 8.26131 11.0391H10.9168C10.9629 11.0381 11.0087 11.0475 11.0508 11.0665C11.0928 11.0855 11.1301 11.1136 11.1599 11.1488C11.1844 11.1784 11.202 11.2131 11.2113 11.2503C11.2206 11.2876 11.2215 11.3264 11.2137 11.364C11.112 11.7883 10.8776 12.169 10.5445 12.4507C10.2835 12.6976 9.94686 12.8492 9.58903 12.8811ZM8.26131 11.2887C8.22689 11.2887 8.21828 11.3038 8.21614 11.3081C8.30709 11.676 8.51285 12.0054 8.80359 12.2485C9.0162 12.4579 9.2926 12.5904 9.58903 12.625C9.8847 12.5908 10.1608 12.46 10.3745 12.2528C10.6643 12.0093 10.8693 11.6799 10.9598 11.3124C10.9551 11.3055 10.9486 11.3001 10.941 11.2966C10.9334 11.2932 10.925 11.292 10.9168 11.293L8.26131 11.2887Z" fill="black"/>
<path d="M12.8448 11.4673C13.54 11.4673 14.1037 11.1359 14.1037 10.7271C14.1037 10.3183 13.54 9.98682 12.8448 9.98682C12.1495 9.98682 11.5859 10.3183 11.5859 10.7271C11.5859 11.1359 12.1495 11.4673 12.8448 11.4673Z" fill="#FEBBD0"/>
<path d="M6.33113 11.4673C7.02637 11.4673 7.58998 11.1359 7.58998 10.7271C7.58998 10.3183 7.02637 9.98682 6.33113 9.98682C5.63588 9.98682 5.07227 10.3183 5.07227 10.7271C5.07227 11.1359 5.63588 11.4673 6.33113 11.4673Z" fill="#FEBBD0"/>
<path fill-rule="evenodd" clip-rule="evenodd" d="M6.92279 10.43C7.15739 10.4304 7.38685 10.3612 7.58212 10.2312C7.77738 10.1012 7.92968 9.91614 8.01976 9.69951C8.10984 9.48291 8.13362 9.24442 8.08812 9.01429C8.0426 8.78415 7.92985 8.57267 7.76412 8.40665C7.59837 8.2406 7.38711 8.12746 7.15705 8.08154C6.927 8.0356 6.68847 8.05897 6.4717 8.14865C6.25491 8.23832 6.06961 8.3903 5.93922 8.58534C5.80885 8.78037 5.73926 9.00968 5.73926 9.24428C5.73926 9.55837 5.86387 9.85963 6.08578 10.0819C6.30767 10.3042 6.6087 10.4294 6.92279 10.43ZM12.253 10.43C12.4879 10.4317 12.718 10.3636 12.9141 10.2344C13.1102 10.1051 13.2635 9.92053 13.3546 9.70402C13.4457 9.48752 13.4704 9.24887 13.4256 9.01828C13.3808 8.78772 13.2686 8.57565 13.1031 8.40896C12.9376 8.24228 12.7264 8.1285 12.4961 8.08205C12.2659 8.0356 12.0271 8.05857 11.8099 8.14805C11.5927 8.23754 11.4071 8.3895 11.2764 8.58466C11.1457 8.77984 11.0759 9.00942 11.0759 9.24428C11.0754 9.55744 11.1989 9.85806 11.4196 10.0803C11.6402 10.3025 11.9399 10.4283 12.253 10.43Z" fill="black"/>
<path fill-rule="evenodd" clip-rule="evenodd" d="M6.55707 9.31972C6.64525 9.32015 6.73159 9.29437 6.80512 9.24569C6.87866 9.197 6.93608 9.12758 6.97012 9.04623C7.00416 8.96489 7.0133 8.87526 6.99634 8.78871C6.97941 8.70216 6.93716 8.62257 6.87494 8.56008C6.81274 8.49756 6.73338 8.45491 6.64691 8.43755C6.56044 8.42019 6.47077 8.42888 6.38925 8.46254C6.30774 8.49618 6.23804 8.55328 6.18899 8.62657C6.13995 8.69988 6.11377 8.78609 6.11377 8.87428C6.11377 8.99205 6.16039 9.10501 6.24348 9.18848C6.32655 9.27197 6.4393 9.31915 6.55707 9.31972ZM11.8873 9.31972C11.9755 9.32015 12.0618 9.29437 12.1353 9.24569C12.2089 9.197 12.2663 9.12758 12.3004 9.04623C12.3344 8.96489 12.3435 8.87526 12.3266 8.78871C12.3097 8.70216 12.2674 8.62257 12.2052 8.56008C12.143 8.49756 12.0636 8.45491 11.9771 8.43755C11.8907 8.42019 11.801 8.42888 11.7195 8.46254C11.638 8.49618 11.5683 8.55328 11.5192 8.62657C11.4702 8.69988 11.444 8.78609 11.444 8.87428C11.444 8.9913 11.49 9.10363 11.5722 9.18699C11.6543 9.27034 11.766 9.31802 11.883 9.31972H11.8873Z" fill="white"/>
</svg>

<svg xmlns="http://www.w3.org/2000/svg" viewBox="0 0 20 20">
  <rect width="100%" height="100%" fill="#FBF0DF"/>
  <path d="M16.69 6.54a2.57 2.57 0 0 0-.1-.1l-.11-.11-.11-.1-.11-.12-.1-.1-.12-.11-.1-.1a5.7 5.7 0 0 1 1.7 3.96c0 3.57-3.62 6.47-8.07 6.47-2.5 0-4.72-.91-6.2-2.34l.1.11.11.1.1.12.12.1.1.11.11.1.1.12a8.92 8.92 0 0 0 6.32 2.44c4.45 0 8.07-2.9 8.07-6.46 0-1.51-.65-2.95-1.81-4.09Z"/>
  <path fill="#FBF0DF" d="M17.1 9.76c0 3.28-3.37 5.93-7.53 5.93s-7.53-2.65-7.53-5.93c0-2.03 1.29-3.82 3.27-4.88C7.3 3.82 8.53 2.73 9.57 2.73c1.04 0 1.92.89 4.26 2.15 1.98 1.06 3.27 2.85 3.27 4.88Z"/>
  <path fill="#F6DECE" d="M17.1 9.76c0-.42-.06-.84-.17-1.24-.59 7.17-9.33 7.5-12.77 5.37a8.6 8.6 0 0 0 5.41 1.8c4.15 0 7.53-2.66 7.53-5.93Z"/>
  <path fill="#FFFEFC" d="M6.67 4.48c.96-.57 2.24-1.65 3.5-1.66a2 2 0 0 0-.6-.1c-.52 0-1.08.28-1.78.68l-.76.46c-.5.31-1.07.66-1.72 1.01-2.05 1.11-3.27 2.94-3.27 4.9v.25c1.3-4.6 3.67-4.96 4.63-5.54Z"/>
  <path fill="#CCBEA7" fill-rule="evenodd" d="M8.95 3.27a3.53 3.53 0 0 1-1.21 2.68c-.06.06-.01.16.06.13.73-.28 1.7-1.12 1.3-2.83-.02-.1-.15-.07-.15.02Zm.49 0a3.5 3.5 0 0 1 .34 2.9c-.02.07.07.14.12.08.47-.6.89-1.8-.35-3.1-.06-.05-.15.04-.11.11v.01Zm.6-.04a3.53 3.53 0 0 1 1.48 2.59.07.07 0 0 0 .13-.03c.2-.75.08-2.03-1.55-2.7-.08-.03-.14.08-.07.14ZM6.05 5.47a3.65 3.65 0 0 0 2.25-1.93c.04-.08.16-.05.14.03-.37 1.73-1.61 2.08-2.39 2.04-.08 0-.08-.11 0-.14Z" clip-rule="evenodd"/>
  <path d="M9.57 16.23c-4.45 0-8.07-2.9-8.07-6.47 0-2.15 1.33-4.16 3.56-5.36.64-.34 1.2-.69 1.69-1l.77-.46c.76-.45 1.4-.75 2.05-.75.65 0 1.2.26 1.91.67l.67.4c.53.34 1.14.71 1.93 1.14 2.23 1.2 3.56 3.2 3.56 5.36 0 3.57-3.62 6.47-8.07 6.47Zm0-13.5c-.52 0-1.08.27-1.78.67l-.76.46c-.5.31-1.07.66-1.72 1.01-2.05 1.11-3.27 2.94-3.27 4.9 0 3.26 3.38 5.92 7.53 5.92s7.53-2.66 7.53-5.93c0-1.95-1.22-3.78-3.27-4.88-.82-.43-1.45-.84-1.97-1.16l-.64-.4c-.65-.38-1.13-.6-1.65-.6Z"/>
  <path fill="#B71422" d="M11.09 11.33c-.1.4-.32.75-.63 1.02-.24.22-.54.37-.86.4a1.47 1.47 0 0 1-.9-.4c-.3-.27-.52-.62-.61-1.02a.15.15 0 0 1 .17-.17h2.66a.15.15 0 0 1 .17.17Z"/>
  <path fill="#FF6164" d="M8.7 12.36c.25.24.56.38.9.41.33-.03.64-.17.88-.4l.22-.24a1.47 1.47 0 0 0-1.06-.5 1.32 1.32 0 0 0-1.08.6c.05.05.1.1.15.13Z"/>
  <path d="M8.74 12.2a1.15 1.15 0 0 1 .9-.45c.33 0 .63.14.87.36l.14-.16a1.5 1.5 0 0 0-1.02-.42 1.37 1.37 0 0 0-1.05.5c.05.06.1.12.16.16Z"/>
  <path d="M9.59 12.88a1.6 1.6 0 0 1-.96-.43 2.05 2.05 0 0 1-.67-1.09.26.26 0 0 1 .06-.21.3.3 0 0 1 .24-.11h2.66a.31.31 0 0 1 .24.1.26.26 0 0 1 .05.22c-.1.43-.33.8-.67 1.1-.26.24-.6.39-.95.42Zm-1.33-1.6c-.03 0-.04.02-.04.03.09.37.3.7.58.94.22.2.5.34.79.38.3-.04.57-.17.78-.38.3-.24.5-.57.59-.94l-.02-.01h-.02l-2.66-.01Z"/>
  <path fill="#FEBBD0" d="M12.84 11.47c.7 0 1.26-.33 1.26-.74s-.56-.74-1.26-.74-1.25.33-1.25.74c0 .4.56.74 1.25.74ZM6.33 11.47c.7 0 1.26-.33 1.26-.74s-.56-.74-1.26-.74-1.26.33-1.26.74c0 .4.57.74 1.26.74Z"/>
  <path fill-rule="evenodd" d="M6.92 10.43a1.19 1.19 0 1 0 0-2.37 1.19 1.19 0 0 0 0 2.37Zm5.33 0a1.19 1.19 0 1 0 .02-2.37 1.19 1.19 0 0 0-.02 2.37Z" clip-rule="evenodd"/>
  <path fill="#fff" fill-rule="evenodd" d="M6.56 9.32a.45.45 0 1 0 0-.9.45.45 0 0 0 0 .9Zm5.33 0Z" clip-rule="evenodd"/>
</svg>
